X: 1
T: Fisher's Rant, The
M: 4/4
L: 1/8
R: strathspey
K: Gmaj
GG, B,G, B,/C/D G2|EA, FA, GA, EA|GG, B,G, B,/C/D G2|1FA (3DEF (3GDC (3B,A,G,:|2FA (3DEF G3C||
BG Bd gd Bd|(3cdc (3BcB AB cd|BG Bd gd BG|(3FGA (3DEF GG, G,c|
BG Bd gd Bd|(3cdc (3BcB AB ce|(3dcB (3ABc (3BAG (3FGA|(3GFE (3DEF (3GDC (3B,A,G,|
